X:1
T:Title
%%score { ( 1 3 ) | 2 }
L:1/8
M:4/4
K:D
V:1 treble nm="Grand Piano"
V:3 treble 
V:2 bass 
V:1
 z4 z2[Q:1/4=104] D>E | F2 G2 F2 D>F | [FA]2 [GB]2 [FA]2 D>E | F F3 [FA]2 [DF]2 | [CE]6 D>E | %5
 F2 G2 F2 D>F | [FA]2 [GB]2 [FA]2 [Fd]>[Fd] | c A3 B3 A |[M:3/4] [CEA]6 |[M:1/4] A>A | %10
[M:4/4] [Fd]4 z4 | [DFA]4 [A,DF]2 [DFA]>[DGB] | [DFA]2 [A,EG]2 [A,CE]2 [CGB]>[CGc] | %13
 [DGB]2 [DFA]2 [A,DF]2 A>A | [Fd]4 z4 | [FA]4 F2 B>B | A d3 d2 [Gc]2 |[M:3/4] [Fd]6 |] %18
V:2
 z4 z2 [D,F,]>[D,G,D] | [D,A,D]2 [D,B,D]2 [D,A,D]2 [D,F,]>[D,A,D] | %2
 [D,D]2 [D,D]2 [D,D]2 [D,F,]>[D,G,D] | [D,A,D] [D,A,D]3 [D,D]2 [D,A,]2 | [A,,A,]6 [D,F,]>[D,G,D] | %5
 [D,A,D]2 [D,B,D]2 [D,A,D]2 [D,F,]>[D,A,D] | [D,D]2 [D,D]2 [D,D]2 [D,A,]>[D,A,] | %7
 [E,A,E] [E,CE]3 [E,DE]3 [E,CE] |[M:3/4] A,,6 |[M:1/4][K:treble] G>G | %10
[M:4/4][K:bass] [D,A,]>D, D,2[K:treble] [G,B,G]>[G,B,G] [G,B,G]>[G,DG] | D,4 D,2 D,>D, | %12
 A,,2 A,,2 A,,2 A,,>A,, | D,2 D,2 D,2[K:treble] F>F | %14
 [D,A,]>D, D,2[K:treble] [G,B,G]>[G,B,G] [G,B,G]>[G,DG] | [D,D]4 [D,A,D]2[K:treble] [G,D]>[G,DG] | %16
 [A,DF] [A,F]3 [A,EG]2[K:bass] [A,,A,]2 |[M:3/4] [D,A,]6 |] %18
V:3
 x8 | x8 | x8 | x8 | x8 | x8 | x8 | x8 |[M:3/4] x6 |[M:1/4] x2 |[M:4/4] z z/ A,/ =C2 e>d c>B | x8 | %12
 x8 | x8 | z z/ A,/ =C2 e>d c>B | x8 | x8 |[M:3/4] x6 |] %18

